public/favicon-done.svg

<svg viewBox="0 0 32 32" fill="none" xmlns="http://www.w3.org/2000/svg">
<rect width="32" height="32" rx="2" fill="#1D60BE"/>
<path d="M8 27.184V6H17.536C19.7973 6 21.5787 6.61867 22.88 7.856C24.1813 9.072 24.832 10.7253 24.832 12.816C24.832 14.9067 24.1813 16.5707 22.88 17.808C21.5787 19.024 19.7973 19.632 17.536 19.632H10.4V27.184H8ZM10.4 17.392H17.376C19.04 17.392 20.2987 16.9867 21.152 16.176C22.0053 15.3653 22.432 14.2453 22.432 12.816C22.432 11.408 22.0053 10.2987 21.152 9.488C20.2987 8.67733 19.04 8.272 17.376 8.272H10.4V17.392Z" fill="white"/>
<circle cx="21.5" cy="21.5" r="8" fill="white" stroke="#1D60BE"/>

<!-- Google's checkmark -->
<path d="
  M19.875 23.775
    L17.6 21.5
    L16.8417 22.2583
    L19.875 25.2917
    L26.375 18.7917
    L25.6167 18.0333
    L19.875 23.775
    Z"
  fill="#00914C"
/>

<!-- My version -->
<path stroke="#00914C" stroke-width="1.5" d="
  M17.26 21.835
    L19.87 24.45
    L25.955 18.37
  "
/>
</svg>

<svg viewBox="0 0 32 32" fill="none" xmlns="http://www.w3.org/2000/svg"><rect width="32" height="32" rx="2" fill="#1D60BE"/><path d="M8 27.184V6h9.536c2.261 0 4.043.619 5.344 1.856 1.301 1.216 1.952 2.87 1.952 4.96s-.65 3.755-1.952 4.992c-1.301 1.216-3.083 1.824-5.344 1.824H10.4v7.552H8zm2.4-9.792h6.976c1.664 0 2.923-.405 3.776-1.216.853-.81 1.28-1.93 1.28-3.36 0-1.408-.427-2.517-1.28-3.328-.853-.81-2.112-1.216-3.776-1.216H10.4v9.12z" fill="#fff"/><circle cx="21.5" cy="21.5" r="8" fill="#fff" stroke="#1D60BE"/><path stroke="#00914C" stroke-width="1.5" d="M17.26 21.835l2.61 2.615 6.085-6.08"/></svg>
